public/svgs/insight/replication.svg

<svg width="400" height="160" viewBox="0 0 400 160" fill="none" xmlns="http://www.w3.org/2000/svg">
    <mask id="path-1-inside-1_910_2287" fill="white">
        <path fill-rule="evenodd" clip-rule="evenodd" d="M400 0H34L0 34V160H400V0Z"/>
    </mask>
    <path d="M34 0V-1H33.5858L33.2929 -0.707107L34 0ZM400 0H401V-1H400V0ZM0 34L-0.707107 33.2929L-1 33.5858V34H0ZM0 160H-1V161H0V160ZM400 160V161H401V160H400ZM34 1H400V-1H34V1ZM0.707107 34.7071L34.7071 0.707107L33.2929 -0.707107L-0.707107 33.2929L0.707107 34.7071ZM1 160V34H-1V160H1ZM400 159H0V161H400V159ZM399 0V160H401V0H399Z"
          fill="#222222" mask="url(#path-1-inside-1_910_2287)"/>
    <path d="M28.58 137L25.5 131.56H24.18V137H21.38V123.04H26.62C27.7 123.04 28.62 123.233 29.38 123.62C30.14 123.993 30.7067 124.507 31.08 125.16C31.4667 125.8 31.66 126.52 31.66 127.32C31.66 128.24 31.3933 129.073 30.86 129.82C30.3267 130.553 29.5333 131.06 28.48 131.34L31.82 137H28.58ZM24.18 129.46H26.52C27.28 129.46 27.8467 129.28 28.22 128.92C28.5933 128.547 28.78 128.033 28.78 127.38C28.78 126.74 28.5933 126.247 28.22 125.9C27.8467 125.54 27.28 125.36 26.52 125.36H24.18V129.46ZM44.4925 131.22C44.4925 131.62 44.4658 131.98 44.4125 132.3H36.3125C36.3792 133.1 36.6592 133.727 37.1525 134.18C37.6458 134.633 38.2525 134.86 38.9725 134.86C40.0125 134.86 40.7525 134.413 41.1925 133.52H44.2125C43.8925 134.587 43.2792 135.467 42.3725 136.16C41.4658 136.84 40.3525 137.18 39.0325 137.18C37.9658 137.18 37.0058 136.947 36.1525 136.48C35.3125 136 34.6525 135.327 34.1725 134.46C33.7058 133.593 33.4725 132.593 33.4725 131.46C33.4725 130.313 33.7058 129.307 34.1725 128.44C34.6392 127.573 35.2925 126.907 36.1325 126.44C36.9725 125.973 37.9392 125.74 39.0325 125.74C40.0858 125.74 41.0258 125.967 41.8525 126.42C42.6925 126.873 43.3392 127.52 43.7925 128.36C44.2592 129.187 44.4925 130.14 44.4925 131.22ZM41.5925 130.42C41.5792 129.7 41.3192 129.127 40.8125 128.7C40.3058 128.26 39.6858 128.04 38.9525 128.04C38.2592 128.04 37.6725 128.253 37.1925 128.68C36.7258 129.093 36.4392 129.673 36.3325 130.42H41.5925ZM49.3363 127.52C49.6963 127.013 50.1896 126.593 50.8163 126.26C51.4563 125.913 52.1829 125.74 52.9963 125.74C53.9429 125.74 54.7963 125.973 55.5563 126.44C56.3296 126.907 56.9363 127.573 57.3763 128.44C57.8296 129.293 58.0563 130.287 58.0563 131.42C58.0563 132.553 57.8296 133.56 57.3763 134.44C56.9363 135.307 56.3296 135.98 55.5563 136.46C54.7963 136.94 53.9429 137.18 52.9963 137.18C52.1829 137.18 51.4629 137.013 50.8363 136.68C50.2229 136.347 49.7229 135.927 49.3363 135.42V142.28H46.5363V125.92H49.3363V127.52ZM55.1963 131.42C55.1963 130.753 55.0563 130.18 54.7763 129.7C54.5096 129.207 54.1496 128.833 53.6963 128.58C53.2563 128.327 52.7763 128.2 52.2563 128.2C51.7496 128.2 51.2696 128.333 50.8163 128.6C50.3763 128.853 50.0163 129.227 49.7363 129.72C49.4696 130.213 49.3363 130.793 49.3363 131.46C49.3363 132.127 49.4696 132.707 49.7363 133.2C50.0163 133.693 50.3763 134.073 50.8163 134.34C51.2696 134.593 51.7496 134.72 52.2563 134.72C52.7763 134.72 53.2563 134.587 53.6963 134.32C54.1496 134.053 54.5096 133.673 54.7763 133.18C55.0563 132.687 55.1963 132.1 55.1963 131.42ZM62.8909 122.2V137H60.0909V122.2H62.8909ZM67.0773 124.6C66.584 124.6 66.1707 124.447 65.8373 124.14C65.5173 123.82 65.3573 123.427 65.3573 122.96C65.3573 122.493 65.5173 122.107 65.8373 121.8C66.1707 121.48 66.584 121.32 67.0773 121.32C67.5707 121.32 67.9773 121.48 68.2973 121.8C68.6307 122.107 68.7973 122.493 68.7973 122.96C68.7973 123.427 68.6307 123.82 68.2973 124.14C67.9773 124.447 67.5707 124.6 67.0773 124.6ZM68.4573 125.92V137H65.6573V125.92H68.4573ZM70.5037 131.46C70.5037 130.313 70.7371 129.313 71.2038 128.46C71.6704 127.593 72.3171 126.927 73.1438 126.46C73.9704 125.98 74.9171 125.74 75.9838 125.74C77.3571 125.74 78.4904 126.087 79.3838 126.78C80.2904 127.46 80.8971 128.42 81.2038 129.66H78.1838C78.0238 129.18 77.7504 128.807 77.3638 128.54C76.9904 128.26 76.5238 128.12 75.9638 128.12C75.1638 128.12 74.5304 128.413 74.0638 129C73.5971 129.573 73.3638 130.393 73.3638 131.46C73.3638 132.513 73.5971 133.333 74.0638 133.92C74.5304 134.493 75.1638 134.78 75.9638 134.78C77.0971 134.78 77.8371 134.273 78.1838 133.26H81.2038C80.8971 134.46 80.2904 135.413 79.3838 136.12C78.4771 136.827 77.3438 137.18 75.9838 137.18C74.9171 137.18 73.9704 136.947 73.1438 136.48C72.3171 136 71.6704 135.333 71.2038 134.48C70.7371 133.613 70.5037 132.607 70.5037 131.46ZM82.535 131.42C82.535 130.3 82.755 129.307 83.195 128.44C83.6483 127.573 84.255 126.907 85.015 126.44C85.7883 125.973 86.6483 125.74 87.595 125.74C88.4217 125.74 89.1417 125.907 89.755 126.24C90.3817 126.573 90.8817 126.993 91.255 127.5V125.92H94.075V137H91.255V135.38C90.895 135.9 90.395 136.333 89.755 136.68C89.1283 137.013 88.4017 137.18 87.575 137.18C86.6417 137.18 85.7883 136.94 85.015 136.46C84.255 135.98 83.6483 135.307 83.195 134.44C82.755 133.56 82.535 132.553 82.535 131.42ZM91.255 131.46C91.255 130.78 91.1217 130.2 90.855 129.72C90.5883 129.227 90.2283 128.853 89.775 128.6C89.3217 128.333 88.835 128.2 88.315 128.2C87.795 128.2 87.315 128.327 86.875 128.58C86.435 128.833 86.075 129.207 85.795 129.7C85.5283 130.18 85.395 130.753 85.395 131.42C85.395 132.087 85.5283 132.673 85.795 133.18C86.075 133.673 86.435 134.053 86.875 134.32C87.3283 134.587 87.8083 134.72 88.315 134.72C88.835 134.72 89.3217 134.593 89.775 134.34C90.2283 134.073 90.5883 133.7 90.855 133.22C91.1217 132.727 91.255 132.14 91.255 131.46ZM100.07 128.22V133.58C100.07 133.953 100.156 134.227 100.33 134.4C100.516 134.56 100.823 134.64 101.25 134.64H102.55V137H100.79C98.4297 137 97.2497 135.853 97.2497 133.56V128.22H95.9297V125.92H97.2497V123.18H100.07V125.92H102.55V128.22H100.07ZM105.984 124.6C105.49 124.6 105.077 124.447 104.744 124.14C104.424 123.82 104.264 123.427 104.264 122.96C104.264 122.493 104.424 122.107 104.744 121.8C105.077 121.48 105.49 121.32 105.984 121.32C106.477 121.32 106.884 121.48 107.204 121.8C107.537 122.107 107.704 122.493 107.704 122.96C107.704 123.427 107.537 123.82 107.204 124.14C106.884 124.447 106.477 124.6 105.984 124.6ZM107.364 125.92V137H104.564V125.92H107.364ZM115.05 137.18C113.983 137.18 113.023 136.947 112.17 136.48C111.317 136 110.643 135.327 110.15 134.46C109.67 133.593 109.43 132.593 109.43 131.46C109.43 130.327 109.677 129.327 110.17 128.46C110.677 127.593 111.363 126.927 112.23 126.46C113.097 125.98 114.063 125.74 115.13 125.74C116.197 125.74 117.163 125.98 118.03 126.46C118.897 126.927 119.577 127.593 120.07 128.46C120.577 129.327 120.83 130.327 120.83 131.46C120.83 132.593 120.57 133.593 120.05 134.46C119.543 135.327 118.85 136 117.97 136.48C117.103 136.947 116.13 137.18 115.05 137.18ZM115.05 134.74C115.557 134.74 116.03 134.62 116.47 134.38C116.923 134.127 117.283 133.753 117.55 133.26C117.817 132.767 117.95 132.167 117.95 131.46C117.95 130.407 117.67 129.6 117.11 129.04C116.563 128.467 115.89 128.18 115.09 128.18C114.29 128.18 113.617 128.467 113.07 129.04C112.537 129.6 112.27 130.407 112.27 131.46C112.27 132.513 112.53 133.327 113.05 133.9C113.583 134.46 114.25 134.74 115.05 134.74ZM129.024 125.76C130.344 125.76 131.411 126.18 132.224 127.02C133.037 127.847 133.444 129.007 133.444 130.5V137H130.644V130.88C130.644 130 130.424 129.327 129.984 128.86C129.544 128.38 128.944 128.14 128.184 128.14C127.411 128.14 126.797 128.38 126.344 128.86C125.904 129.327 125.684 130 125.684 130.88V137H122.884V125.92H125.684V127.3C126.057 126.82 126.531 126.447 127.104 126.18C127.691 125.9 128.331 125.76 129.024 125.76ZM145.692 137.14C144.719 137.14 143.839 136.973 143.052 136.64C142.279 136.307 141.666 135.827 141.212 135.2C140.759 134.573 140.526 133.833 140.512 132.98H143.512C143.552 133.553 143.752 134.007 144.112 134.34C144.486 134.673 144.992 134.84 145.632 134.84C146.286 134.84 146.799 134.687 147.172 134.38C147.546 134.06 147.732 133.647 147.732 133.14C147.732 132.727 147.606 132.387 147.352 132.12C147.099 131.853 146.779 131.647 146.392 131.5C146.019 131.34 145.499 131.167 144.832 130.98C143.926 130.713 143.186 130.453 142.612 130.2C142.052 129.933 141.566 129.54 141.152 129.02C140.752 128.487 140.552 127.78 140.552 126.9C140.552 126.073 140.759 125.353 141.172 124.74C141.586 124.127 142.166 123.66 142.912 123.34C143.659 123.007 144.512 122.84 145.472 122.84C146.912 122.84 148.079 123.193 148.972 123.9C149.879 124.593 150.379 125.567 150.472 126.82H147.392C147.366 126.34 147.159 125.947 146.772 125.64C146.399 125.32 145.899 125.16 145.272 125.16C144.726 125.16 144.286 125.3 143.952 125.58C143.632 125.86 143.472 126.267 143.472 126.8C143.472 127.173 143.592 127.487 143.832 127.74C144.086 127.98 144.392 128.18 144.752 128.34C145.126 128.487 145.646 128.66 146.312 128.86C147.219 129.127 147.959 129.393 148.532 129.66C149.106 129.927 149.599 130.327 150.012 130.86C150.426 131.393 150.632 132.093 150.632 132.96C150.632 133.707 150.439 134.4 150.052 135.04C149.666 135.68 149.099 136.193 148.352 136.58C147.606 136.953 146.719 137.14 145.692 137.14ZM156.32 128.22V133.58C156.32 133.953 156.406 134.227 156.58 134.4C156.766 134.56 157.073 134.64 157.5 134.64H158.8V137H157.04C154.68 137 153.5 135.853 153.5 133.56V128.22H152.18V125.92H153.5V123.18H156.32V125.92H158.8V128.22H156.32ZM171.274 125.92V137H168.454V135.6C168.094 136.08 167.62 136.46 167.034 136.74C166.46 137.007 165.834 137.14 165.154 137.14C164.287 137.14 163.52 136.96 162.854 136.6C162.187 136.227 161.66 135.687 161.274 134.98C160.9 134.26 160.714 133.407 160.714 132.42V125.92H163.514V132.02C163.514 132.9 163.734 133.58 164.174 134.06C164.614 134.527 165.214 134.76 165.974 134.76C166.747 134.76 167.354 134.527 167.794 134.06C168.234 133.58 168.454 132.9 168.454 132.02V125.92H171.274ZM173.316 131.42C173.316 130.3 173.536 129.307 173.976 128.44C174.43 127.573 175.043 126.907 175.816 126.44C176.59 125.973 177.45 125.74 178.396 125.74C179.116 125.74 179.803 125.9 180.456 126.22C181.11 126.527 181.63 126.94 182.016 127.46V122.2H184.856V137H182.016V135.36C181.67 135.907 181.183 136.347 180.556 136.68C179.93 137.013 179.203 137.18 178.376 137.18C177.443 137.18 176.59 136.94 175.816 136.46C175.043 135.98 174.43 135.307 173.976 134.44C173.536 133.56 173.316 132.553 173.316 131.42ZM182.036 131.46C182.036 130.78 181.903 130.2 181.636 129.72C181.37 129.227 181.01 128.853 180.556 128.6C180.103 128.333 179.616 128.2 179.096 128.2C178.576 128.2 178.096 128.327 177.656 128.58C177.216 128.833 176.856 129.207 176.576 129.7C176.31 130.18 176.176 130.753 176.176 131.42C176.176 132.087 176.31 132.673 176.576 133.18C176.856 133.673 177.216 134.053 177.656 134.32C178.11 134.587 178.59 134.72 179.096 134.72C179.616 134.72 180.103 134.593 180.556 134.34C181.01 134.073 181.37 133.7 181.636 133.22C181.903 132.727 182.036 132.14 182.036 131.46ZM198.191 125.92L191.331 142.24H188.351L190.751 136.72L186.311 125.92H189.451L192.311 133.66L195.211 125.92H198.191Z"
          fill="#222222"/>
    <ellipse cx="334" cy="37.5" rx="11.9706" ry="2.5" stroke="#222222" stroke-width="2"/>
    <path d="M345.971 37.5L341.618 48V65C349.84 78.8333 366.524 107.8 369.036 113C372.175 119.5 373.521 129 357.375 130C345.576 130.731 337.62 130.961 334.394 130.995V131C334.275 131 334.144 131 334 130.999C333.856 131 333.725 131 333.606 131V130.995C330.38 130.961 322.424 130.731 310.625 130C294.479 129 295.825 119.5 298.964 113C301.476 107.8 318.16 78.8333 326.382 65V48L322.029 37.5"
          stroke="#222222" stroke-width="2"/>
    <path d="M310.412 106L308.235 110.5" stroke="#222222"/>
    <path d="M306.603 113.5L304.426 117.5C303.338 119.5 302.032 122.5 307.691 122.5" stroke="#222222"/>
    <ellipse cx="334" cy="97.5" rx="26.1176" ry="3.5" stroke="#222222" stroke-dasharray="2 2"/>
    <circle cx="304.5" cy="54.5" r="10" stroke="#222222" stroke-dasharray="2 2"/>
    <circle cx="304.5" cy="54.4999" r="2.36364" stroke="#222222" stroke-dasharray="2 2"/>
    <path d="M380.89 124.241V72.2261H359.371V124.241C359.371 130.183 364.188 135 370.13 135C376.073 135 380.89 130.183 380.89 124.241Z"
          fill="#EFEFEF"/>
    <path d="M359.371 72.2261V124.241C359.371 130.183 364.188 135 370.13 135V135C376.073 135 380.89 130.183 380.89 124.241V72.2261"
          stroke="#222222" stroke-width="0.890411"/>
    <path d="M380.815 72.226C380.815 72.2264 380.815 72.2279 380.814 72.2312C380.813 72.2347 380.811 72.2416 380.806 72.2521C380.795 72.2739 380.771 72.3093 380.723 72.3563C380.624 72.453 380.454 72.5676 380.195 72.69C379.68 72.9338 378.906 73.165 377.913 73.3635C375.935 73.759 373.183 74.0068 370.13 74.0068C367.077 74.0068 364.325 73.759 362.347 73.3635C361.355 73.165 360.58 72.9338 360.065 72.69C359.806 72.5676 359.636 72.453 359.537 72.3563C359.489 72.3093 359.466 72.2739 359.454 72.2521C359.449 72.2416 359.447 72.2347 359.446 72.2312C359.445 72.2279 359.445 72.2264 359.445 72.226C359.445 72.2256 359.445 72.2241 359.446 72.2209C359.447 72.2174 359.449 72.2105 359.454 72.2C359.466 72.1782 359.489 72.1427 359.537 72.0958C359.636 71.9991 359.806 71.8844 360.065 71.762C360.58 71.5183 361.355 71.287 362.347 71.0885C364.325 70.693 367.077 70.4452 370.13 70.4452C373.183 70.4452 375.935 70.693 377.913 71.0885C378.906 71.287 379.68 71.5183 380.195 71.762C380.454 71.8844 380.624 71.9991 380.723 72.0958C380.771 72.1427 380.795 72.1782 380.806 72.2C380.811 72.2105 380.813 72.2174 380.814 72.2209C380.815 72.2241 380.815 72.2256 380.815 72.226Z"
          stroke="#222222" stroke-width="0.890411"/>
    <path d="M378.842 87.7584C379.629 87.9561 380.251 88.1811 380.667 88.4252L380.414 88.8565C380.578 88.9525 380.674 89.0349 380.724 89.0952C380.744 89.1186 380.753 89.1347 380.758 89.144C380.753 89.1533 380.744 89.1694 380.724 89.1928C380.674 89.2531 380.578 89.3355 380.414 89.4315L380.667 89.8628C380.251 90.1069 379.629 90.3319 378.842 90.5295L378.72 90.0446C378.179 90.1805 377.553 90.3043 376.854 90.4123L376.93 90.9064C376.331 90.999 375.683 91.0797 374.995 91.1466L374.947 90.649C374.337 90.7084 373.694 90.7569 373.026 90.7932L373.053 91.2925C372.424 91.3266 371.773 91.35 371.105 91.3616L371.097 90.8617C370.778 90.8672 370.456 90.87 370.13 90.87C369.804 90.87 369.482 90.8672 369.164 90.8617L369.155 91.3616C368.487 91.35 367.836 91.3266 367.207 91.2925L367.235 90.7932C366.566 90.7569 365.924 90.7084 365.313 90.649L365.265 91.1466C364.577 91.0797 363.929 90.999 363.33 90.9064L363.406 90.4123C362.708 90.3043 362.081 90.1805 361.54 90.0446L361.418 90.5295C360.631 90.3319 360.009 90.1069 359.593 89.8628L359.846 89.4315C359.682 89.3355 359.587 89.2531 359.536 89.1928C359.517 89.1694 359.507 89.1533 359.503 89.144C359.507 89.1347 359.517 89.1186 359.536 89.0952C359.587 89.0349 359.682 88.9525 359.846 88.8565L359.593 88.4252C360.009 88.1811 360.631 87.9561 361.418 87.7584L361.54 88.2434C362.081 88.1075 362.708 87.9837 363.406 87.8757L363.33 87.3816C363.929 87.289 364.577 87.2083 365.265 87.1413L365.313 87.639C365.924 87.5796 366.566 87.5311 367.235 87.4948L367.207 86.9955C367.836 86.9614 368.487 86.938 369.155 86.9264L369.164 87.4263C369.482 87.4208 369.804 87.418 370.13 87.418C370.456 87.418 370.778 87.4208 371.097 87.4263L371.105 86.9264C371.773 86.938 372.424 86.9614 373.053 86.9955L373.026 87.4948C373.694 87.5311 374.337 87.5796 374.947 87.639L374.995 87.1413C375.683 87.2083 376.331 87.289 376.93 87.3816L376.854 87.8757C377.553 87.9837 378.179 88.1075 378.72 88.2434L378.842 87.7584ZM380.761 89.1538C380.761 89.1538 380.761 89.153 380.761 89.1514C380.761 89.153 380.761 89.1538 380.761 89.1538ZM380.761 89.1342C380.761 89.1342 380.761 89.135 380.761 89.1365C380.761 89.135 380.761 89.1342 380.761 89.1342ZM359.499 89.1342C359.499 89.1342 359.499 89.135 359.499 89.1365C359.499 89.135 359.499 89.1342 359.499 89.1342ZM359.499 89.1538C359.499 89.1538 359.499 89.153 359.499 89.1514C359.499 89.153 359.499 89.1538 359.499 89.1538Z"
          stroke="#222222" stroke-dasharray="2 2"/>
    <path d="M363.823 101.603V104.055" stroke="#222222" stroke-width="0.890411"/>
    <path d="M363.823 106.616V112.849" stroke="#222222" stroke-width="0.890411"/>
    <path d="M363.823 115.411V120.308C363.947 121.496 364.565 124.048 366.049 124.76" stroke="#222222"
          stroke-width="0.890411"/>
</svg>

<svg xmlns="http://www.w3.org/2000/svg" width="400" height="160" fill="none" viewBox="0 0 400 160"><mask id="a" fill="#fff"><path fill-rule="evenodd" d="M400 0H34L0 34v126h400z" clip-rule="evenodd"/></mask><path fill="#222" d="M34 0v-1h-.414l-.293.293zm366 0h1v-1h-1zM0 34l-.707-.707-.293.293V34zm0 126h-1v1h1zm400 0v1h1v-1zM34 1h366v-2H34zM.707 34.707l34-34-1.414-1.414-34 34zM1 160V34h-2v126zm399-1H0v2h400zM399 0v160h2V0z" mask="url(#a)"/><path fill="#222" d="m28.58 137-3.08-5.44h-1.32V137h-2.8v-13.96h5.24q1.62 0 2.76.58 1.14.56 1.7 1.54.58.96.58 2.16 0 1.38-.8 2.5-.8 1.1-2.38 1.52l3.34 5.66zm-4.4-7.54h2.34q1.14 0 1.7-.54.56-.56.56-1.54 0-.96-.56-1.48-.56-.54-1.7-.54h-2.34zm20.313 1.76q0 .6-.08 1.08h-8.1q.099 1.2.84 1.88.74.68 1.82.68 1.56 0 2.22-1.34h3.02q-.48 1.6-1.84 2.64-1.36 1.02-3.34 1.02-1.6 0-2.88-.7a5.15 5.15 0 0 1-1.98-2.02q-.7-1.3-.7-3 0-1.72.7-3.02a4.9 4.9 0 0 1 1.96-2q1.26-.7 2.9-.7 1.58 0 2.82.68 1.26.68 1.94 1.94.7 1.24.7 2.86m-2.9-.8q-.021-1.08-.78-1.72-.76-.66-1.86-.66-1.04 0-1.76.64-.7.62-.86 1.74zm7.743-2.9q.54-.76 1.48-1.26.96-.52 2.18-.52 1.42 0 2.56.7 1.16.7 1.82 2 .68 1.28.68 2.98t-.68 3.02q-.66 1.3-1.82 2.02-1.14.72-2.56.72-1.22 0-2.16-.5a4.6 4.6 0 0 1-1.5-1.26v6.86h-2.8v-16.36h2.8zm5.86 3.9q0-1-.42-1.72a2.74 2.74 0 0 0-1.08-1.12 2.84 2.84 0 0 0-1.44-.38q-.759 0-1.44.4-.66.38-1.08 1.12-.4.74-.4 1.74t.4 1.74q.42.74 1.08 1.14.681.38 1.44.38.78 0 1.44-.4a2.9 2.9 0 0 0 1.08-1.14q.42-.74.42-1.76m7.695-9.22V137h-2.8v-14.8zm4.186 2.4q-.74 0-1.24-.46-.48-.48-.48-1.18t.48-1.16q.5-.48 1.24-.48t1.22.48q.5.46.5 1.16t-.5 1.18q-.48.46-1.22.46m1.38 1.32V137h-2.8v-11.08zm2.047 5.54q0-1.72.7-3a4.9 4.9 0 0 1 1.94-2q1.24-.72 2.84-.72 2.06 0 3.4 1.04 1.36 1.02 1.82 2.88h-3.02a2.14 2.14 0 0 0-.82-1.12q-.56-.42-1.4-.42-1.2 0-1.9.88-.7.86-.7 2.46 0 1.58.7 2.46.7.86 1.9.86 1.7 0 2.22-1.52h3.02q-.46 1.8-1.82 2.86t-3.4 1.06q-1.6 0-2.84-.7a5.1 5.1 0 0 1-1.94-2q-.7-1.3-.7-3.02m12.031-.04q0-1.68.66-2.98.68-1.3 1.82-2a4.9 4.9 0 0 1 2.58-.7q1.24 0 2.16.5.94.5 1.5 1.26v-1.58h2.82V137h-2.82v-1.62q-.54.78-1.5 1.3-.94.5-2.18.5-1.4 0-2.56-.72-1.14-.72-1.82-2.02-.66-1.32-.66-3.02m8.72.04q0-1.02-.4-1.74a2.74 2.74 0 0 0-1.08-1.12q-.68-.4-1.46-.4t-1.44.38-1.08 1.12q-.4.72-.4 1.72t.4 1.76q.42.74 1.08 1.14.68.4 1.44.4.78 0 1.46-.38.68-.4 1.08-1.12.4-.74.4-1.76m8.815-3.24v5.36q0 .56.26.82.28.24.92.24h1.3V137h-1.76q-3.54 0-3.54-3.44v-5.34h-1.32v-2.3h1.32v-2.74h2.82v2.74h2.48v2.3zm5.914-3.62q-.74 0-1.24-.46-.48-.48-.48-1.18t.48-1.16q.5-.48 1.24-.48t1.22.48q.5.46.5 1.16t-.5 1.18q-.48.46-1.22.46m1.38 1.32V137h-2.8v-11.08zm7.686 11.26q-1.6 0-2.88-.7a5.25 5.25 0 0 1-2.02-2.02q-.72-1.3-.72-3t.74-3a5.2 5.2 0 0 1 2.06-2q1.3-.72 2.9-.72t2.9.72a5.07 5.07 0 0 1 2.04 2q.76 1.3.76 3t-.78 3a5.3 5.3 0 0 1-2.08 2.02q-1.3.7-2.92.7m0-2.44q.76 0 1.42-.36a2.74 2.74 0 0 0 1.08-1.12q.4-.74.4-1.8 0-1.58-.84-2.42a2.68 2.68 0 0 0-2.02-.86q-1.2 0-2.02.86-.8.84-.8 2.42t.78 2.44q.8.84 2 .84m13.974-8.98q1.98 0 3.2 1.26 1.22 1.24 1.22 3.48v6.5h-2.8v-6.12q0-1.32-.66-2.02-.66-.72-1.8-.72-1.16 0-1.84.72-.66.7-.66 2.02V137h-2.8v-11.08h2.8v1.38a3.8 3.8 0 0 1 1.42-1.12 4.4 4.4 0 0 1 1.92-.42m16.668 11.38q-1.46 0-2.64-.5-1.16-.5-1.84-1.44t-.7-2.22h3q.06.86.6 1.36.56.5 1.52.5.98 0 1.54-.46.56-.48.56-1.24 0-.62-.38-1.02a2.54 2.54 0 0 0-.96-.62q-.56-.24-1.56-.52-1.359-.4-2.22-.78a4.1 4.1 0 0 1-1.46-1.18q-.6-.8-.6-2.12 0-1.24.62-2.16.621-.92 1.74-1.4 1.12-.5 2.56-.5 2.16 0 3.5 1.06 1.36 1.04 1.5 2.92h-3.08a1.56 1.56 0 0 0-.62-1.18q-.56-.48-1.5-.48-.819 0-1.32.42-.48.42-.48 1.22 0 .56.36.94.38.36.92.6.561.22 1.56.52 1.36.4 2.22.8a4 4 0 0 1 1.48 1.2q.62.8.62 2.1 0 1.12-.58 2.08t-1.7 1.54q-1.12.56-2.66.56m10.628-8.92v5.36q0 .56.26.82.28.24.92.24h1.3V137h-1.76q-3.54 0-3.54-3.44v-5.34h-1.32v-2.3h1.32v-2.74h2.82v2.74h2.48v2.3zm14.954-2.3V137h-2.82v-1.4q-.54.72-1.42 1.14a4.4 4.4 0 0 1-1.88.4q-1.3 0-2.3-.54a4 4 0 0 1-1.58-1.62q-.56-1.08-.56-2.56v-6.5h2.8v6.1q0 1.32.66 2.04.66.7 1.8.7 1.16 0 1.82-.7.66-.72.66-2.04v-6.1zm2.042 5.5q0-1.68.66-2.98.68-1.3 1.84-2a4.9 4.9 0 0 1 2.58-.7q1.08 0 2.06.48.981.46 1.56 1.24v-5.26h2.84V137h-2.84v-1.64q-.52.82-1.46 1.32t-2.18.5q-1.4 0-2.56-.72t-1.84-2.02q-.66-1.32-.66-3.02m8.72.04q0-1.02-.4-1.74a2.73 2.73 0 0 0-1.08-1.12q-.68-.4-1.46-.4t-1.44.38-1.08 1.12q-.4.72-.4 1.72t.4 1.76q.42.74 1.08 1.14.681.4 1.44.4.78 0 1.46-.38.681-.4 1.08-1.12.4-.74.4-1.76m16.155-5.54-6.86 16.32h-2.98l2.4-5.52-4.44-10.8h3.14l2.86 7.74 2.9-7.74z"/><ellipse cx="334" cy="37.5" stroke="#222" stroke-width="2" rx="11.971" ry="2.5"/><path stroke="#222" stroke-width="2" d="M345.971 37.5 341.618 48v17c8.222 13.833 24.906 42.8 27.418 48 3.139 6.5 4.485 16-11.661 17-11.799.731-19.755.961-22.981.995V131l-.394-.001-.394.001v-.005c-3.226-.034-11.182-.264-22.981-.995-16.146-1-14.8-10.5-11.661-17 2.512-5.2 19.196-34.167 27.418-48V48l-4.353-10.5"/><path stroke="#222" d="m310.412 106-2.177 4.5M306.603 113.5l-2.177 4c-1.088 2-2.394 5 3.265 5"/><ellipse cx="334" cy="97.5" stroke="#222" stroke-dasharray="2 2" rx="26.118" ry="3.5"/><circle cx="304.5" cy="54.5" r="10" stroke="#222" stroke-dasharray="2 2"/><circle cx="304.5" cy="54.5" r="2.364" stroke="#222" stroke-dasharray="2 2"/><path fill="#efefef" d="M380.89 124.241V72.226h-21.519v52.015c0 5.942 4.817 10.759 10.759 10.759s10.76-4.817 10.76-10.759"/><path stroke="#222" stroke-width=".89" d="M359.371 72.226v52.015c0 5.942 4.817 10.759 10.759 10.759s10.76-4.817 10.76-10.759V72.226"/><path stroke="#222" stroke-width=".89" d="m380.815 72.226-.001.005-.008.021a.4.4 0 0 1-.083.104c-.099.097-.269.212-.528.334-.515.244-1.289.475-2.282.674-1.978.395-4.73.643-7.783.643s-5.805-.248-7.783-.644c-.992-.198-1.767-.43-2.282-.673-.259-.122-.429-.237-.528-.334a.5.5 0 0 1-.083-.104l-.008-.02-.001-.006.001-.005.008-.021a.5.5 0 0 1 .083-.104c.099-.097.269-.212.528-.334.515-.244 1.29-.475 2.282-.674 1.978-.395 4.73-.643 7.783-.643s5.805.248 7.783.644c.993.198 1.767.43 2.282.673.259.122.429.237.528.334a.4.4 0 0 1 .083.104z"/><path stroke="#222" stroke-dasharray="2 2" d="M378.842 87.758c.787.198 1.409.423 1.825.667l-.253.431c.164.097.26.179.31.24a.3.3 0 0 1 .034.048.3.3 0 0 1-.034.049c-.05.06-.146.142-.31.239l.253.43c-.416.245-1.038.47-1.825.668l-.122-.485c-.541.135-1.167.26-1.866.367l.076.494a35 35 0 0 1-1.935.24l-.048-.497q-.917.09-1.921.144l.027.5q-.945.051-1.948.069l-.008-.5a56 56 0 0 1-1.933 0l-.009.5a53 53 0 0 1-1.948-.07l.028-.499a45 45 0 0 1-1.922-.144l-.048.498a35 35 0 0 1-1.935-.24l.076-.495a21 21 0 0 1-1.866-.367l-.122.484c-.787-.197-1.409-.422-1.825-.666l.253-.431a1.2 1.2 0 0 1-.31-.24.2.2 0 0 1-.033-.048.2.2 0 0 1 .033-.049c.051-.06.146-.142.31-.239l-.253-.43c.416-.245 1.038-.47 1.825-.668l.122.485c.541-.135 1.168-.26 1.866-.367l-.076-.494a35 35 0 0 1 1.935-.24l.048.497q.917-.09 1.922-.144l-.028-.5q.945-.051 1.948-.069l.009.5a56 56 0 0 1 1.933 0l.008-.5q1.003.018 1.948.07l-.027.499q1.004.055 1.921.144l.048-.498c.688.067 1.336.148 1.935.24l-.076.495c.699.108 1.325.231 1.866.367zm1.919 1.396v-.003zm0-.02v.002zm-21.262 0v.002zm0 .02v-.003z"/><path stroke="#222" stroke-width=".89" d="M363.823 101.603v2.452M363.823 106.616v6.233M363.823 115.411v4.897c.124 1.188.742 3.74 2.226 4.452"/></svg>
